tenants/businesswise/icons/direction_left.svg

<svg fill="none" height="24" viewBox="0 0 24 24" width="24" xmlns="http://www.w3.org/2000/svg"><path d="m15.338 21.9999c-.2134.0006-.4242-.0467-.617-.1382-.1927-.0915-.3626-.2251-.497-.3908l-6.89902-8.57c-.20996-.2556-.32474-.5762-.32474-.907s.11478-.6513.32474-.907l7.14202-8.57097c.2424-.29173.5908-.47523.9685-.51011s.7537.08171 1.0455.32411c.2917.24241.4752.59078.5101.96848s-.0817.75378-.3241 1.04552l-6.385 7.65697 6.17 7.656c.1745.2097.2853.4649.3194.7355.0341.2707-.01.5454-.1271.7918-.117.2463-.3021.4541-.5334.5986-.2313.1446-.5002.2199-.7729.2171z" fill="#000"/></svg>

<svg width="24" height="24" viewBox="0 0 24 24" fill="none" xmlns="http://www.w3.org/2000/svg">
<path d="M15.338 21.9999C15.1246 22.0005 14.9138 21.9532 14.721 21.8617C14.5283 21.7702 14.3584 21.6366 14.224 21.4709L7.32498 12.9009C7.11502 12.6453 7.00024 12.3247 7.00024 11.9939C7.00024 11.6631 7.11502 11.3426 7.32498 11.0869L14.467 2.51593C14.7094 2.2242 15.0578 2.0407 15.4355 2.00582C15.8132 1.97094 16.1892 2.08753 16.481 2.32993C16.7727 2.57234 16.9562 2.92071 16.9911 3.29841C17.026 3.67611 16.9094 4.05219 16.667 4.34393L10.282 12.0009L16.452 19.6569C16.6265 19.8666 16.7373 20.1218 16.7714 20.3924C16.8055 20.6631 16.7614 20.9378 16.6443 21.1842C16.5273 21.4305 16.3422 21.6383 16.1109 21.7828C15.8796 21.9274 15.6107 22.0027 15.338 21.9999Z" fill="black"/>
</svg>
